Newaita/actions/24/view-more.svg

<svg height="24" viewBox="0 0 24 24" width="24" xmlns="http://www.w3.org/2000/svg"><g fill="#424242"><path d="m14.386719 19.535156c0-1.371094-1.105469-2.480468-2.480469-2.480468s-2.480469 1.109374-2.480469 2.480468c0 1.375 1.105469 2.484375 2.480469 2.484375s2.480469-1.109375 2.480469-2.484375zm0 0"/><path d="m14.386719 12.09375c0-1.375-1.105469-2.480469-2.480469-2.480469s-2.480469 1.105469-2.480469 2.480469 1.105469 2.480469 2.480469 2.480469 2.480469-1.105469 2.480469-2.480469zm0 0"/><path d="m14.386719 4.652344c0-1.375-1.105469-2.480469-2.480469-2.480469s-2.480469 1.105469-2.480469 2.480469 1.105469 2.480468 2.480469 2.480468 2.480469-1.105468 2.480469-2.480468zm0 0"/></g></svg>

<?xml version="1.0" encoding="UTF-8"?>
<svg xmlns="http://www.w3.org/2000/svg" xmlns:xlink="http://www.w3.org/1999/xlink" width="24px" height="24px" viewBox="0 0 24 24" version="1.1">
<g id="surface1">
<path style=" stroke:none;fill-rule:nonzero;fill:rgb(25.882354%,25.882354%,25.882354%);fill-opacity:1;" d="M 14.386719 19.535156 C 14.386719 18.164062 13.28125 17.054688 11.90625 17.054688 C 10.53125 17.054688 9.425781 18.164062 9.425781 19.535156 C 9.425781 20.910156 10.53125 22.019531 11.90625 22.019531 C 13.28125 22.019531 14.386719 20.910156 14.386719 19.535156 Z M 14.386719 19.535156 "/>
<path style=" stroke:none;fill-rule:nonzero;fill:rgb(25.882354%,25.882354%,25.882354%);fill-opacity:1;" d="M 14.386719 12.09375 C 14.386719 10.71875 13.28125 9.613281 11.90625 9.613281 C 10.53125 9.613281 9.425781 10.71875 9.425781 12.09375 C 9.425781 13.46875 10.53125 14.574219 11.90625 14.574219 C 13.28125 14.574219 14.386719 13.46875 14.386719 12.09375 Z M 14.386719 12.09375 "/>
<path style=" stroke:none;fill-rule:nonzero;fill:rgb(25.882354%,25.882354%,25.882354%);fill-opacity:1;" d="M 14.386719 4.652344 C 14.386719 3.277344 13.28125 2.171875 11.90625 2.171875 C 10.53125 2.171875 9.425781 3.277344 9.425781 4.652344 C 9.425781 6.027344 10.53125 7.132812 11.90625 7.132812 C 13.28125 7.132812 14.386719 6.027344 14.386719 4.652344 Z M 14.386719 4.652344 "/>
</g>
</svg>
